X:034 
T:Come Upstairs with Me 
S:Jim Mulqueeny (Clare)
F:file ID: cre.5/034come_up
B:CRE5.059 (Tar Suas Staighre Liom)
%%Q:160
M:9/8
R:slip jig
K:G
D|GFG BAG Bcd|efg def gdB|
"3"GFG BAG Bcd|ecA ABG FE:|
e|"5"gfg edc Bcd|gfg efg aba|
"7"g2f edc Bcd|ecA ABG FED|
"9"g2g edc Bcd|gfg efg aba|
"11"g2f edc Bcd|efg def g3|]

%%%

